X: 3425
T: Best Cup Of Coffee
R: reel
M: 4/4
K: Gmajor
DD GG (3BAG A2|B3 A AG EE|D2 D2 E2 D2|
(3GGG c3 B G2|AB AA G2 D2:|
d2 B2 B3 A|G2 G2 E2 D2|EGAB A2 D2|
GA Bc d4|ffee d2 g2|ecdB d2 g2:|

